X:1
T:The Perth Medley
T:The Perth Medley
T:Miss Magdalina Stirling of Ardoch, ca. 1788
C:Miss Magdalina Stirling of Ardoch, ca. 1788
%%score ( 1 2 )
L:1/8
M:2/2
K:D
V:1 treble 
V:2 treble 
V:1
"D"{B} A2 FA DAFA | DAFA"G" BE E2 |"D"{B} A2 FA DAFA |"A7" faeg"D" fd d2 |"D"{B} A2 FA DAFA | %5
 DAFA"G" BE E2 |"D"{B} A2 FA DAFA |"A7" faeg"D" fd d2 |"D"{g} fdad"G" bd"D"ad | %9
"D" fdad"Em" be"A7"eg |"D" fdad"G" bd"D"ad |"A7" ABde"D" fddg |"D" (3fed ad"G" bd"D"ad | %13
"D" (3fed ad"Em" be"A7"eg |"D" fadf"G" gbeg |"A" ABde"D" fd d2 |] E |"A" A<A A2 A>B c<e | %18
"Bm" B<B B>c d>e"E7" f<a |"A" A<A A>B A>B c>d | ef/g/ a>c"E7" [DGB]2"A" [CA]E |"A" A<A A2 A>B c<e | %22
"Bm" B<B B>c d>e"E7" f<a |"A" A<A A>B A>B c>d | ef/g/ a>c"E7" [DGB]2"A" [CA] || e | %26
"A" d/c/B/A/ e>A"D" f>A"A"e>A |"E" G<BB>A G<BB>e |"A" d/c/B/A/ e>A"D" f>A"A" e>A | %29
 ef/g/ a>c"E7" B2"A" A>e |"A" d/c/B/A/ e>A"D" f>A"A"e>A |"E" G<BB>c"E7" G<BB>c | %32
"A" A<c"E7" B<d"A" c<e"D"d<f |"A" ef/g/ a>c"E7" [DGB]2"A" [CA] |] %34
V:2
 D8 | x8 | D8 | x8 | D8 | x8 | D8 | x8 | x8 | x8 | x8 | x8 | x8 | x8 | x8 | x8 |] x | x8 | x8 | %19
 x8 | x8 | x8 | x8 | x8 | x7 || x | x8 | x8 | x8 | x8 | x8 | x8 | x8 | x7 |] %34

